Papirus/24x24/apps/accessories-ebook-reader.svg

<svg xmlns="http://www.w3.org/2000/svg" width="24" height="24" version="1.1">
 <path style="fill:#009688" d="m4 2h16c0.554 0 1 0.446 1 1v18c0 0.554-0.446 1-1 1h-16c-0.554 0-1-0.446-1-1v-18c0-0.554 0.446-1 1-1z"/>
 <path style="fill:#d8d8d8" d="m15 2v11l1-1h1l1 1v-11z"/>
 <path style="opacity:.2" d="m4 2c-0.554 0-1 0.446-1 1v18c0 0.9625 1 1 1 1h2v-20z"/>
 <path style="opacity:.2;fill:#ffffff" d="m4 2c-0.554 0-1 0.446-1 1v0.5c0-0.554 0.446-1 1-1h16c0.554 0 1 0.446 1 1v-0.5c0-0.554-0.446-1-1-1z"/>
 <path style="opacity:.2" d="m3 21v0.5c0 0.554 0.446 1 1 1h16c0.554 0 1-0.446 1-1v-0.5c0 0.554-0.446 1-1 1h-16c-0.554 0-1-0.446-1-1z"/>
</svg>

<svg xmlns="http://www.w3.org/2000/svg" width="24" height="24" version="1.1">
 <rect style="opacity:0.2" width="18" height="20" x="3" y="2.5" rx="1" ry="1"/>
 <rect style="fill:#009688" width="18" height="20" x="3" y="2" rx="1" ry="1"/>
 <path style="opacity:0.2" d="M 15,2.5 V 13.5 L 16,12.5 H 17 L 18,13.5 V 2.5 Z"/>
 <path style="fill:#d8d8d8" d="m15 2v11l1-1h1l1 1v-11z"/>
 <path style="opacity:0.2" d="M 4 2 C 3.446 2 3 2.446 3 3 L 3 21 C 3 21.554 3.446 22 4 22 L 6 22 L 6 2 L 4 2 z"/>
 <path style="opacity:0.2;fill:#ffffff" d="M 4 2 C 3.446 2 3 2.446 3 3 L 3 3.5 C 3 2.946 3.446 2.5 4 2.5 L 20 2.5 C 20.554 2.5 21 2.946 21 3.5 L 21 3 C 21 2.446 20.554 2 20 2 L 4 2 z"/>
</svg>
